public/assets/images/icons/smileys.svg

<svg width="120" height="120" viewBox="0 0 120 120" fill="none" xmlns="http://www.w3.org/2000/svg">
<path d="M55.4678 25.33C55.4678 19.0726 60.5404 14 66.7978 14H103.96C110.218 14 115.29 19.0726 115.29 25.3301V44.8177C115.29 51.0751 110.218 56.1478 103.96 56.1478H66.7978C60.5404 56.1478 55.4678 51.0751 55.4678 44.8177V25.33Z" fill="#E6C3E6"/>
<foreignObject x="-25.291" y="-5.57642" width="141.576" height="141.576"><div xmlns="http://www.w3.org/1999/xhtml" style="backdrop-filter:blur(15px);clip-path:url(#bgblur_0_911_3222_clip_path);height:100%;width:100%"></div></foreignObject><path data-figma-bg-blur-radius="30" d="M86.2853 65.2118C86.2853 87.7384 68.0239 106 45.4972 106C22.9705 106 4.70898 87.7384 4.70898 65.2118C4.70898 42.6851 22.9705 24.4236 45.4972 24.4236C68.0239 24.4236 86.2853 42.6851 86.2853 65.2118Z" fill="url(#paint0_linear_911_3222)" fill-opacity="0.3"/>
<foreignObject x="-25.291" y="-5.57642" width="141.576" height="141.576"><div xmlns="http://www.w3.org/1999/xhtml" style="backdrop-filter:blur(15px);clip-path:url(#bgblur_1_911_3222_clip_path);height:100%;width:100%"></div></foreignObject><g data-figma-bg-blur-radius="30">
<path fill-rule="evenodd" clip-rule="evenodd" d="M45.4972 105.773C67.8987 105.773 86.0587 87.6133 86.0587 65.2118C86.0587 42.8102 67.8987 24.6502 45.4972 24.6502C23.0956 24.6502 4.93559 42.8102 4.93559 65.2118C4.93559 87.6133 23.0956 105.773 45.4972 105.773ZM45.4972 106C68.0239 106 86.2853 87.7384 86.2853 65.2118C86.2853 42.6851 68.0239 24.4236 45.4972 24.4236C22.9705 24.4236 4.70898 42.6851 4.70898 65.2118C4.70898 87.7384 22.9705 106 45.4972 106Z" fill="url(#paint1_linear_911_3222)"/>
<path fill-rule="evenodd" clip-rule="evenodd" d="M45.4972 105.773C67.8987 105.773 86.0587 87.6133 86.0587 65.2118C86.0587 42.8102 67.8987 24.6502 45.4972 24.6502C23.0956 24.6502 4.93559 42.8102 4.93559 65.2118C4.93559 87.6133 23.0956 105.773 45.4972 105.773ZM45.4972 106C68.0239 106 86.2853 87.7384 86.2853 65.2118C86.2853 42.6851 68.0239 24.4236 45.4972 24.4236C22.9705 24.4236 4.70898 42.6851 4.70898 65.2118C4.70898 87.7384 22.9705 106 45.4972 106Z" fill="url(#paint2_radial_911_3222)"/>
</g>
<circle cx="30.5418" cy="56.1477" r="4.53202" fill="white"/>
<circle cx="59.9998" cy="56.1477" r="4.53202" fill="white"/>
<path d="M56.4503 72.3952C57.7734 73.0576 58.3265 74.6862 57.442 75.8726C56.2676 77.4478 54.7933 78.7871 53.0949 79.8085C50.6274 81.2925 47.7888 82.0443 44.9102 81.976C42.0316 81.9077 39.2318 81.0223 36.8374 79.423C35.1894 78.3222 33.7802 76.9145 32.6818 75.2854C31.8546 74.0584 32.4842 72.4579 33.8373 71.8589C35.1904 71.2599 36.7492 71.9054 37.6905 73.0472C38.2977 73.7837 39.0121 74.4314 39.8138 74.9669C41.3631 76.0017 43.1747 76.5747 45.0372 76.6188C46.8998 76.663 48.7365 76.1766 50.3331 75.2164C51.1593 74.7195 51.9036 74.1063 52.545 73.3995C53.5394 72.3036 55.1271 71.7328 56.4503 72.3952Z" fill="white"/>
<defs>
<clipPath id="bgblur_0_911_3222_clip_path" transform="translate(25.291 5.57642)"><path d="M86.2853 65.2118C86.2853 87.7384 68.0239 106 45.4972 106C22.9705 106 4.70898 87.7384 4.70898 65.2118C4.70898 42.6851 22.9705 24.4236 45.4972 24.4236C68.0239 24.4236 86.2853 42.6851 86.2853 65.2118Z"/>
</clipPath><clipPath id="bgblur_1_911_3222_clip_path" transform="translate(25.291 5.57642)"><path fill-rule="evenodd" clip-rule="evenodd" d="M45.4972 105.773C67.8987 105.773 86.0587 87.6133 86.0587 65.2118C86.0587 42.8102 67.8987 24.6502 45.4972 24.6502C23.0956 24.6502 4.93559 42.8102 4.93559 65.2118C4.93559 87.6133 23.0956 105.773 45.4972 105.773ZM45.4972 106C68.0239 106 86.2853 87.7384 86.2853 65.2118C86.2853 42.6851 68.0239 24.4236 45.4972 24.4236C22.9705 24.4236 4.70898 42.6851 4.70898 65.2118C4.70898 87.7384 22.9705 106 45.4972 106Z"/>
</clipPath><linearGradient id="paint0_linear_911_3222" x1="13.4386" y1="31.95" x2="101.489" y2="77.5416" gradientUnits="userSpaceOnUse">
<stop stop-color="#DE5AFF" stop-opacity="0.9"/>
<stop offset="0.447036" stop-color="#FF56FC" stop-opacity="0.955296"/>
<stop offset="1" stop-color="#E44EFF" stop-opacity="0.9"/>
</linearGradient>
<linearGradient id="paint1_linear_911_3222" x1="16.4488" y1="21.5101" x2="92.9129" y2="66.1548" gradientUnits="userSpaceOnUse">
<stop offset="0.188941" stop-color="#FAE7FF" stop-opacity="0.523483"/>
<stop offset="0.526042" stop-color="#E788FF"/>
<stop offset="1" stop-color="#F6B4FF" stop-opacity="0.1"/>
</linearGradient>
<radialGradient id="paint2_radial_911_3222" cx="0" cy="0" r="1" gradientUnits="userSpaceOnUse" gradientTransform="translate(16.9003 103.329) rotate(-50.9773) scale(64.0642 104.752)">
<stop stop-color="white"/>
<stop offset="1" stop-color="white" stop-opacity="0"/>
</radialGradient>
</defs>
</svg>

<svg xmlns="http://www.w3.org/2000/svg" width="120" height="120" fill="none"><path fill="#E6C3E6" d="M55.468 25.33c0-6.257 5.072-11.33 11.33-11.33h37.162c6.258 0 11.33 5.073 11.33 11.33v19.488c0 6.257-5.072 11.33-11.33 11.33H66.798c-6.258 0-11.33-5.073-11.33-11.33z"/><foreignObject width="141.576" height="141.576" x="-25.291" y="-5.576"><div xmlns="http://www.w3.org/1999/xhtml" style="backdrop-filter:blur(15px);clip-path:url(#a);height:100%;width:100%"/></foreignObject><path fill="url(#b)" fill-opacity=".3" d="M86.285 65.212C86.285 87.738 68.024 106 45.497 106S4.71 87.738 4.71 65.212c0-22.527 18.262-40.788 40.788-40.788 22.527 0 40.788 18.261 40.788 40.788" data-figma-bg-blur-radius="30"/><foreignObject width="141.576" height="141.576" x="-25.291" y="-5.576"><div xmlns="http://www.w3.org/1999/xhtml" style="backdrop-filter:blur(15px);clip-path:url(#c);height:100%;width:100%"/></foreignObject><g fill-rule="evenodd" clip-rule="evenodd" data-figma-bg-blur-radius="30"><path fill="url(#d)" d="M45.497 105.773c22.402 0 40.562-18.16 40.562-40.561 0-22.402-18.16-40.562-40.562-40.562S4.936 42.81 4.936 65.212s18.16 40.561 40.561 40.561m0 .227c22.527 0 40.788-18.262 40.788-40.788 0-22.527-18.261-40.788-40.788-40.788S4.71 42.685 4.71 65.212 22.971 106 45.497 106"/><path fill="url(#e)" d="M45.497 105.773c22.402 0 40.562-18.16 40.562-40.561 0-22.402-18.16-40.562-40.562-40.562S4.936 42.81 4.936 65.212s18.16 40.561 40.561 40.561m0 .227c22.527 0 40.788-18.262 40.788-40.788 0-22.527-18.261-40.788-40.788-40.788S4.71 42.685 4.71 65.212 22.971 106 45.497 106"/></g><circle cx="30.542" cy="56.148" r="4.532" fill="#fff"/><circle cx="60" cy="56.148" r="4.532" fill="#fff"/><path fill="#fff" d="M56.45 72.395c1.323.663 1.877 2.291.992 3.478a15.18 15.18 0 0 1-24.76-.588c-.827-1.227-.198-2.827 1.155-3.426s2.912.046 3.853 1.188a9.823 9.823 0 0 0 14.855.353c.994-1.096 2.582-1.667 3.905-1.005"/><defs><linearGradient id="b" x1="13.439" x2="101.489" y1="31.95" y2="77.542" gradientUnits="userSpaceOnUse"><stop stop-color="#DE5AFF" stop-opacity=".9"/><stop offset=".447" stop-color="#FF56FC" stop-opacity=".955"/><stop offset="1" stop-color="#E44EFF" stop-opacity=".9"/></linearGradient><linearGradient id="d" x1="16.449" x2="92.913" y1="21.51" y2="66.155" gradientUnits="userSpaceOnUse"><stop offset=".189" stop-color="#FAE7FF" stop-opacity=".523"/><stop offset=".526" stop-color="#E788FF"/><stop offset="1" stop-color="#F6B4FF" stop-opacity=".1"/></linearGradient><clipPath id="a" transform="translate(25.291 5.576)"><path d="M86.285 65.212C86.285 87.738 68.024 106 45.497 106S4.71 87.738 4.71 65.212c0-22.527 18.262-40.788 40.788-40.788 22.527 0 40.788 18.261 40.788 40.788"/></clipPath><clipPath id="c" transform="translate(25.291 5.576)"><path fill-rule="evenodd" d="M45.497 105.773c22.402 0 40.562-18.16 40.562-40.561 0-22.402-18.16-40.562-40.562-40.562S4.936 42.81 4.936 65.212s18.16 40.561 40.561 40.561m0 .227c22.527 0 40.788-18.262 40.788-40.788 0-22.527-18.261-40.788-40.788-40.788S4.71 42.685 4.71 65.212 22.971 106 45.497 106" clip-rule="evenodd"/></clipPath><radialGradient id="e" cx="0" cy="0" r="1" gradientTransform="matrix(40.33663 -49.77126 81.38147 65.95482 16.9 103.329)" gradientUnits="userSpaceOnUse"><stop stop-color="#fff"/><stop offset="1" stop-color="#fff" stop-opacity="0"/></radialGradient></defs></svg>
